!!!LAR: Susato, Tielman
!!!OPR: Het Derde Mussyck Boexken, Vol 3
!!!OTL: Reihent&auml;nze Branlen
!!!OMV: 4. Die Post (a)
!!!PPR: Tielman Susato
!!!PPP@EN: Belgium; Antwerp
!!!PDT: 1551
**kern	**kern	**kern	**kern
*Ifltdb	*Ifltdt	*Ifltda	*Ifltds
*>[A,A,B,B]	*>[A,A,B,B]	*>[A,A,B,B]	*>[A,A,B,B]
*>norep[A,B]	*>norep[A,B]	*>norep[A,B]	*>norep[A,B]
*>A	*>A	*>A	*>A
=1-	=1-	=1-	=1-
*clefF4	*clefGv2	*clefGv2	*clefGv2
*k[]	*k[]	*k[]	*k[]
*met(C)	*met(C)	*met(C)	*met(C)
*M4/4	*M4/4	*M4/4	*M4/4
*MM136	*MM136	*MM136	*MM136
4FF/	4F/	4c\	4a\
4FF/	4F/	4c\	4a\
4C/	4G/	4c\	4g\
4C/	4A/	4c\	4e\
=2	=2	=2	=2
4D\	4F/	4A/	4f\
4GG/	4G/	4B\	4d\
4C/	4E/	4c\	4e\
4C/	4E/	4c\	4e\
=3	=3	=3	=3
4FF/	4F/	4c\	4a\
4FF/	4F/	4c\	4a\
4C/	4G/	4c\	4g\
4C/	4A/	4c\	4e\
=4	=4	=4	=4
2D\	4.F/	4.A/	2f\
.	8G/	8B\	.
2AA/	2A/	2c#\	2e\
=5:|!|:	=5:|!|:	=5:|!|:	=5:|!|:
*>B	*>B	*>B	*>B
4D\	4F/	4A/	4d\
4AA/	4E/	4A/	4c\
8D\L	4F/	4A/	4d\
8F\J	.	.	.
4E\	4G/	8B\L	4e\
.	.	8c\J	.
=6	=6	=6	=6
4D\	4A/	4d\	4f\
4D\	4F/	4A/	4d\
2C/	2G/	2c\	2e\
=7	=7	=7	=7
4D\	4F/	4A/	4d\
4AA/	4E/	4A/	4c\
8D\L	4F/	4A/	4d\
8F\J	.	.	.
4E\	4G/	8B\L	4e\
.	.	8c\J	.
=8	=8	=8	=8
4D\	4A/	4d\	2f\
4D\	4F/	4A/	.
2C/	2G/	2c\	2e\
==:|!	==:|!	==:|!	==:|!
*-	*-	*-	*-
!!!ENC: Craig Stuart Sapp
!!!END: 2004/03/20/
